papirus/48x48/apps/gmail-offline.svg

<?xml version="1.0" encoding="UTF-8" standalone="no"?>
<svg
   xmlns:dc="http://purl.org/dc/elements/1.1/"
   xmlns:cc="http://creativecommons.org/ns#"
   xmlns:rdf="http://www.w3.org/1999/02/22-rdf-syntax-ns#"
   xmlns:svg="http://www.w3.org/2000/svg"
   xmlns="http://www.w3.org/2000/svg"
   xmlns:sodipodi="http://sodipodi.sourceforge.net/DTD/sodipodi-0.dtd"
   xmlns:inkscape="http://www.inkscape.org/namespaces/inkscape"
   width="48"
   height="48"
   viewBox="0 0 48 48"
   version="1.1"
   preserveAspectRatio="xMidYMid"
   id="svg2"
   inkscape:version="0.91 r13725"
   sodipodi:docname="gmail-offline.svg">
  <metadata
     id="metadata33">
    <rdf:RDF>
      <cc:Work
         rdf:about="">
        <dc:format>image/svg+xml</dc:format>
        <dc:type
           rdf:resource="http://purl.org/dc/dcmitype/StillImage" />
        <dc:title></dc:title>
      </cc:Work>
    </rdf:RDF>
  </metadata>
  <sodipodi:namedview
     pagecolor="#ffffff"
     bordercolor="#666666"
     borderopacity="1"
     objecttolerance="10"
     gridtolerance="10"
     guidetolerance="10"
     inkscape:pageopacity="0"
     inkscape:pageshadow="2"
     inkscape:window-width="1600"
     inkscape:window-height="849"
     id="namedview31"
     showgrid="false"
     inkscape:zoom="7.03"
     inkscape:cx="-14.781079"
     inkscape:cy="36.822691"
     inkscape:window-x="0"
     inkscape:window-y="30"
     inkscape:window-maximized="1"
     inkscape:current-layer="svg2" />
  <defs
     id="defs4">
    <linearGradient
       x1="1.3210427"
       y1="127.76156"
       x2="211.76385"
       y2="127.76156"
       id="linearGradient-1"
       gradientTransform="matrix(0.18885351,0,0,0.12862752,3.966219,8.9999997)"
       gradientUnits="userSpaceOnUse">
      <stop
         stop-color="#000000"
         stop-opacity="0.1"
         offset="0%"
         id="stop7" />
      <stop
         stop-color="#000000"
         stop-opacity="0.2"
         offset="100%"
         id="stop9" />
    </linearGradient>
  </defs>
  <path
     style="fill:#e3e3e3"
     inkscape:connector-curvature="0"
     id="path13"
     d="M 41.5,39 6.5000001,39 C 5.1428573,39 4.0000002,37.903302 4.0000002,36.523584 l 0,-25.047169 C 4.0000002,10.132075 5.107143,9 6.5000001,9 L 41.5,9 c 1.357142,0 2.5,1.096698 2.5,2.476415 l 0,25.047169 C 44,37.903302 42.892857,39 41.5,39 l 0,0 z" />
  <path
     style="opacity:0.1;fill:#231f20"
     inkscape:connector-curvature="0"
     id="path15"
     d="M 8.9977902,38.964831 23.93983,27.112545 24.046813,26.479484 8.6411783,15.541618 8.6055171,38.43728 8.9977902,38.964831 Z" />
  <path
     inkscape:connector-curvature="0"
     style="fill:#4f8cf6;fill-opacity:1"
     d="M 6.4999994,10 C 5.2775389,10 4.2759797,10.190451 4.048904,11.163435 4.017233,11.299142 4,11.450468 4,11.618268 L 4,36.540387 C 4,37.911279 5.107037,39 6.4999999,39 L 9,39 9,11.618268 C 9,11.451301 8.982136,11.298959 8.94914,11.163435 8.7220595,10.190457 7.722457,9.9999999 6.4999994,10 Z"
     id="path17" />
  <path
     inkscape:connector-curvature="0"
     style="fill:#4f8cf6;fill-opacity:1"
     d="M 41.500001,10.000004 C 40.107038,10.000004 39,10.174943 39,11.544175 l 0,27.42073 0,0.0351 2.500001,0 C 42.892964,39.000004 44,37.9126 44,36.543368 l 0,-24.999189 c 0,-1.369232 -1.107036,-1.544171 -2.499999,-1.544171 z"
     id="path21" />
  <path
     inkscape:connector-curvature="0"
     style="fill:url(#linearGradient-1)"
     id="path25"
     d="M 31,39 4.214157,12.590107 l 1.39582,0.559951 18.472496,13.118407 19.863285,-14.364702 0,24.634338 c 0,1.33646 -1.105505,2.466471 -2.496284,2.461899 z"
     sodipodi:nodetypes="cccccssc" />
  <path
     style="fill:#4f8cf6;fill-opacity:1"
     d="M 6.5,9 C 5.1071429,9 4,10.132223 4,11.476562 l 0,0.421876 c 0.092821,0.355083 0.2198174,0.698074 0.3984375,0.982421 0.1727339,0.275865 0.3994069,0.524335 0.6757813,0.726563 L 23.939453,27.148438 34.996094,19.197266 42.947266,13.501953 C 43.480106,13.12425 43.841395,12.57658 44,11.990234 l 0,-0.513672 C 44,10.096846 42.857142,9 41.5,9 L 41.148438,9 C 40.737566,9.072962 40.294369,9.2306275 39.988281,9.4570312 L 23.939453,21.027344 8,9.5976562 C 7.6790493,9.3602588 7.0405723,9.1104515 6.515625,9 L 6.5,9 Z"
     id="path27"
     inkscape:connector-curvature="0" />
  <path
     inkscape:connector-curvature="0"
     style="opacity:0.3;fill:#000000;fill-opacity:1"
     d="m 4,35.523438 0,1 C 4,37.903155 5.1428572,39 6.5,39 l 35,0 c 1.392857,0 2.5,-1.096845 2.5,-2.476562 l 0,-1 C 44,36.903155 42.892857,38 41.5,38 l -35,0 C 5.1428572,38 4,36.903155 4,35.523438 Z"
     id="path4175" />
  <path
     inkscape:connector-curvature="0"
     style="opacity:0.1;fill:#ffffff;fill-opacity:1"
     d="M 6.5,9 C 5.1071429,9 4,10.132223 4,11.476562 l 0,1 C 4,11.132223 5.1071429,10 6.5,10 l 35,0 c 1.357142,0 2.5,1.096846 2.5,2.476562 l 0,-1 C 44,10.096846 42.857142,9 41.5,9 l -35,0 z"
     id="path4180" />
</svg>

<?xml version="1.0" encoding="UTF-8" standalone="no"?>
<svg id="svg2" xmlns:rdf="http://www.w3.org/1999/02/22-rdf-syntax-ns#" xmlns="http://www.w3.org/2000/svg" viewBox="0 0 48 48" width="48" version="1.1" preserveAspectRatio="xMidYMid" xmlns:cc="http://creativecommons.org/ns#" height="48" xmlns:dc="http://purl.org/dc/elements/1.1/">
 <metadata id="metadata33">
  <rdf:RDF>
   <cc:Work rdf:about="">
    <dc:format>image/svg+xml</dc:format>
    <dc:type rdf:resource="http://purl.org/dc/dcmitype/StillImage"/>
    <dc:title/>
   </cc:Work>
  </rdf:RDF>
 </metadata>
 <path id="path13" fill="#ccc" d="m41.5 39h-35c-1.3571 0-2.5-1.097-2.5-2.476v-25.047c0-1.345 1.1071-2.477 2.5-2.477h35c1.3571 0 2.5 1.0967 2.5 2.4764v25.047c0 1.38-1.107 2.477-2.5 2.477z"/>
 <path id="path17" fill="#4f8cf6" d="m6.5 10c-1.2225 0-2.224 0.19-2.4511 1.163-0.0317 0.136-0.0489 0.287-0.0489 0.455v24.922c0 1.371 1.107 2.46 2.5 2.46h2.5v-27.382c0-0.167-0.0179-0.319-0.0509-0.455-0.227-0.973-1.2266-1.163-2.4491-1.163z"/>
 <path id="path21" fill="#4f8cf6" d="m41.5 10c-1.393 0-2.5 0.175-2.5 1.544v27.421 0.0351h2.5c1.393 0 2.5-1.087 2.5-2.457v-24.999c0-1.3692-1.107-1.5442-2.5-1.5442z"/>
 <path id="path27" fill="#4f8cf6" d="m6.5 9c-1.3929 0-2.5 1.132-2.5 2.477v0.42188c0.092821 0.35508 0.21982 0.69807 0.39844 0.98242 0.17273 0.27586 0.39941 0.52434 0.67578 0.72656l18.865 13.54 11.057-7.951 7.951-5.695c0.533-0.378 0.894-0.925 1.053-1.512v-0.51367c0-1.379-1.143-2.476-2.5-2.476h-0.352c-0.41 0.073-0.854 0.2306-1.16 0.457l-16.049 11.57-15.939-11.429c-0.321-0.2377-0.9594-0.4875-1.4844-0.598h-0.0156z"/>
 <path id="path4175" opacity=".2" d="m4 36.523v1c0 1.38 1.1429 2.477 2.5 2.477h35c1.3929 0 2.5-1.0968 2.5-2.4766v-1c0 1.38-1.107 2.477-2.5 2.477h-35c-1.3571 0-2.5-1.097-2.5-2.477z"/>
 <path id="path4180" opacity=".1" d="m6.5 9c-1.3929 0-2.5 1.132-2.5 2.477v1c0-1.345 1.1071-2.477 2.5-2.477h35c1.3571 0 2.5 1.0968 2.5 2.4766v-1c0-1.38-1.143-2.477-2.5-2.477h-35z" fill="#fff"/>
</svg>
